public/Img/Product/service__security.svg

<svg width="56" height="56" viewBox="0 0 56 56" fill="none" xmlns="http://www.w3.org/2000/svg">
<g id="Icon">
<path id="Vector" fill-rule="evenodd" clip-rule="evenodd" d="M27.7981 2.80005L32.1174 4.89993L33.9002 5.8283C34.5291 6.14559 35.1051 6.40383 36.143 6.79515L37.3619 7.24079C38.9662 7.8337 40.0959 8.02352 40.5628 8.08268L40.7138 8.10002L40.9577 8.11104L41.1623 8.12481L49 8.75133V32.7616C49 44.2621 32.2501 53.2001 28 53.2001C23.0714 53.2001 7.40864 44.0121 7.00784 33.1843L7 32.7616V8.71415L12.6187 8.32377C13.3531 8.26769 14.0379 8.21211 14.5817 8.16208L15.139 8.10497C15.5382 8.05096 16.8605 7.8381 18.9456 7.17607L19.5797 6.94097C21.1223 6.35226 22.3377 5.76633 23.0368 5.40688L23.697 5.05278L27.7981 2.80005ZM27.9174 7.03834L25.7051 8.23454L25.2614 8.47882C25.0829 8.57382 24.8728 8.68245 24.6277 8.8049L23.826 9.19361C22.8993 9.62942 21.8817 10.0625 20.7915 10.4714C20.507 10.5781 20.2202 10.6821 19.9313 10.7832C18.6808 11.1765 17.5165 11.4749 16.5016 11.6792L16.0759 11.7609C15.607 11.8466 15.2686 11.8949 15.0658 11.9176L14.9084 11.9323L10.5 12.2538V32.7966L10.5083 33.1682C10.6852 37.126 13.6746 40.8864 18.3456 44.4091C21.9236 47.1075 26.1919 49.3768 28 49.3768C29.7482 49.3768 34.027 47.0916 37.5965 44.4132C42.3062 40.8792 45.3137 37.1286 45.4916 33.1684L45.5 32.7966V12.2693L41.2712 11.9354L41.0508 11.9268L40.8684 11.9148L40.453 11.8724C40.301 11.8536 40.1354 11.8299 39.9568 11.8008C39.0163 11.6472 37.9436 11.3815 36.7543 10.9769L35.5123 10.5425L34.6389 10.2173C33.7826 9.88641 32.9897 9.54351 32.2664 9.19953L31.5216 8.83277L30.9903 8.5541L30.8524 8.4785L30.5598 8.30968L30.2979 8.16788L27.9174 7.03834Z" fill="#6B7CFF"/>
<path id="Vector_2" fill-rule="evenodd" clip-rule="evenodd" d="M35.2798 13.4262C38.854 14.7268 41.0506 14.7268 41.0506 14.7268L42.6998 14.857V32.7966C42.6998 39.4284 29.509 46.5768 27.9998 46.5768C26.3506 46.5768 13.2998 39.4284 13.2998 32.7966V14.857L15.0848 14.7268C15.0848 14.7268 17.1456 14.5966 20.8556 13.4262C24.5656 12.1284 27.0366 10.6976 27.0366 10.6976L27.9998 10.1768L29.0974 10.6976C29.0974 10.6976 31.434 12.1284 35.2798 13.4262ZM20.168 29.417L27.0364 35.3978L37.3404 23.1772L34.868 20.9666L26.6248 30.7176L22.2288 26.9474L20.168 29.417Z" fill="#6B7CFF"/>
</g>
</svg>

<svg width="56" height="56" fill="none" xmlns="http://www.w3.org/2000/svg"><g fill-rule="evenodd" clip-rule="evenodd" fill="#6B7CFF"><path d="m27.798 2.8 4.32 2.1 1.782.928c.63.318 1.205.576 2.243.967l1.219.446c1.604.593 2.734.783 3.2.842l.152.017.244.011.204.014L49 8.75v24.01c0 11.501-16.75 20.44-21 20.44-4.929 0-20.591-9.189-20.992-20.017L7 32.762V8.714l5.619-.39c.734-.056 1.419-.112 1.963-.162l.557-.057c.4-.054 1.721-.267 3.807-.929l.634-.235a34.937 34.937 0 0 0 3.457-1.534l.66-.354L27.798 2.8Zm.12 4.238-2.213 1.197-.444.244a27.76 27.76 0 0 1-.633.326l-.802.389a40.921 40.921 0 0 1-3.895 1.59c-1.25.393-2.415.69-3.43.895l-.425.082c-.469.086-.807.134-1.01.157l-.158.014-4.408.322v20.543l.008.371c.177 3.958 3.167 7.718 7.838 11.241 3.578 2.699 7.846 4.968 9.654 4.968 1.748 0 6.027-2.285 9.596-4.964 4.71-3.534 7.718-7.284 7.896-11.245l.008-.371V12.269l-4.229-.334-.22-.008-.183-.012-.415-.043a13.078 13.078 0 0 1-.496-.071c-.94-.154-2.013-.42-3.203-.824l-1.242-.434-.873-.326c-.856-.33-1.65-.673-2.373-1.017l-.744-.367-.532-.279-.138-.075-.292-.17-.262-.141-2.38-1.13Z"/><path d="M35.28 13.426c3.574 1.3 5.77 1.3 5.77 1.3l1.65.131v17.94c0 6.631-13.191 13.78-14.7 13.78-1.65 0-14.7-7.149-14.7-13.78v-17.94l1.785-.13s2.06-.13 5.77-1.3c3.71-1.299 6.182-2.73 6.182-2.73l.963-.52 1.097.52s2.337 1.431 6.183 2.73ZM20.168 29.417l6.868 5.98 10.304-12.22-2.472-2.21-8.243 9.75-4.396-3.77-2.061 2.47Z"/></g></svg>
